!!!COM: Palestrina, Giovanni Perluigi da
!!!OPR: Missa In festis Apostolorum (I)
!!!OTL: Agnus
**kern	**kern	**kern	**kern	**kern
*Ibass	*Itenor	*Itenor	*Icalto	*Icant
!Bassus	!Tenor 2	!Tenor 1	!Altus	!Cantus
*clefF4	*clefGv2	*clefGv2	*clefG2	*clefG2
*k[]	*k[]	*k[]	*k[]	*k[]
*D:dor	*D:dor	*D:dor	*D:dor	*D:dor
*M4/2	*M4/2	*M4/2	*M4/2	*M4/2
=1	=1	=1	=1	=1
0r	0r	2r	1d	0r
.	.	1d	.	.
.	.	.	1e	.
.	.	2c	.	.
=2	=2	=2	=2	=2
0r	2r	1B	1g	1d
.	1d	.	.	.
.	.	1A	1a	1e
.	2c	.	.	.
=3	=3	=3	=3	=3
0r	1B	2r	2.d	1g
.	.	1d	.	.
.	.	.	4e	.
.	1A	.	2f	2.a
.	.	4c	2e	.
.	.	4B	.	4g
=4	=4	=4	=4	=4
2r	1A	2.c	1e	4a
.	.	.	.	4b
1A	.	.	.	1cc
.	.	4d	.	.
.	1B	1e	1E	.
2G	.	.	.	[2b
=5	=5	=5	=5	=5
1F	1d	1A	0r	4b]
.	.	.	.	4a
.	.	.	.	1a
1E	2.e	1B	.	.
.	.	.	.	2g#
.	4d	.	.	.
=6	=6	=6	=6	=6
1AA	4c	1A	1.e	0a
.	4B	.	.	.
.	2.A	.	.	.
2C	.	1r	.	.
.	4G	.	.	.
2D	2F	.	2d	.
=7	=7	=7	=7	=7
1AA	0E	1A	2.c	2r
.	.	.	.	1a
.	.	.	4d	.
1r	.	1B	1e	.
.	.	.	.	2g
=8	=8	=8	=8	=8
1r	1D	1d	2A	1f
.	.	.	1d	.
2r	1A	1e	.	2e
[2A	.	.	2c	2a
=9	=9	=9	=9	=9
2A]	0r	1e	2A	2cc
2G	.	.	2B	2.b
2F	.	1f	2c	.
.	.	.	.	4a
2D	.	.	2d	[2a
=10	=10	=10	=10	=10
1E	0r	2.e	2B	2a]
.	.	.	2.e	2g
.	.	4d	.	.
1A	.	1c	.	2.e
.	.	.	4d	.
.	.	.	[2c	.
.	.	.	.	4f
=11	=11	=11	=11	=11
1G	2r	1d	2c]	0g
.	2d	.	2B	.
1C	1e	2r	1c	.
.	.	2c	.	.
=12	=12	=12	=12	=12
0r	2B	2d	0r	1r
.	2c	2A	.	.
.	2d	2B	.	2r
.	[2e	[2c	.	2g
=13	=13	=13	=13	=13
0r	4e]	4c]	1r	1a
.	4d	4B	.	.
.	4c	4A	.	.
.	4B	4G	.	.
.	[1c	1A	2r	2e
.	.	.	2c	2f
=14	=14	=14	=14	=14
0r	2c]	1.G	1d	1g
.	2B	.	.	.
.	2G	.	2B	2d
.	[2A	4F	2c	[2f
.	.	4E	.	.
=15	=15	=15	=15	=15
0r	4A]	2D	2d	2f]
.	4B	.	.	.
.	1c	2E	2G	2e
.	.	2F	2A	1d
.	2B	2G	2G	.
=16	=16	=16	=16	=16
1r	1e	2C	1g	1c
.	.	1c	.	.
1G	1d	.	1g	1r
.	.	2B	.	.
=17	=17	=17	=17	=17
1A	2c	1c	2.e	2r
.	2.e	.	.	2cc
.	.	.	4f	.
2E	.	1r	2g	2b
.	4d	.	.	.
2F	[2c	.	2f	[2a
=18	=18	=18	=18	=18
1G	2c]	0r	2e	2a]
.	2B	.	1d	2g
2D	[1A	.	.	2.f
[2F	.	.	4c	.
.	.	.	4B	4e
=19	=19	=19	=19	=19
2F]	2A]	1r	4A	2d
.	.	.	4B	.
2E	2G	.	1c	2e
1D	1F	1d	.	2.f
.	.	.	2B	.
.	.	.	.	4g
=20	=20	=20	=20	=20
1C	2r	1e	2c	4a
.	.	.	.	4g
.	1G	.	2e	2.g
1r	.	2B	2d	.
.	.	.	.	8f
.	.	.	.	8e
.	2A	2c	[2c	2f
=21	=21	=21	=21	=21
0r	1G	1d	2c]	2g
.	.	.	2B	2g
.	2.F	2A	1c	1a
.	.	[2c	.	.
.	4G	.	.	.
=22	=22	=22	=22	=22
0r	4A	4c]	1r	2e
.	4B	4B	.	.
.	1c	2A	.	2f
.	.	[1G	1d	[1g
.	2B	.	.	.
=23	=23	=23	=23	=23
1C	1c	1G]	1e	2g]
.	.	.	.	2e
1D	1r	2r	2A	2.f
.	.	2D	2B	.
.	.	.	.	4g
=24	=24	=24	=24	=24
2AA	1r	2E	2c	2a
2BB	.	2D	2d	4g
.	.	.	.	4f
1C	2r	1G	1c	4e
.	.	.	.	4d
.	2G	.	.	2e
=25	=25	=25	=25	=25
1FF	1A	2.F	0c	4f
.	.	.	.	4g
.	.	.	.	4a
.	.	8E	.	4b
.	.	8D	.	.
1AA	2E	2.C	.	[1cc
.	2F	.	.	.
.	.	4D	.	.
=26	=26	=26	=26	=26
1GG	2G	4E	2r	2cc]
.	.	4F	.	.
.	2D	2G	1d	2b
[1FF	[1F	2.A	.	[1a
.	.	.	2c	.
.	.	4B	.	.
=27	=27	=27	=27	=27
1FF]	2F]	1c	2A	1a]
.	2E	.	1c	.
1GG	1D	1r	.	[1g
.	.	.	2B	.
=28	=28	=28	=28	=28
0C	1C	1E	2.c	1g]
.	.	.	4d	.
.	1r	1G	1e	1r
=29	=29	=29	=29	=29
0r	1.c	1A	2r	1e
.	.	.	1e	.
.	.	1G	.	1g
.	2B	.	2d	.
=30	=30	=30	=30	=30
0r	2A	0r	2c	1.a
.	4F	.	4A	.
.	4G	.	4B	.
.	4A	.	4c	.
.	4B	.	4d	.
.	2c	.	[2e	2g
=31	=31	=31	=31	=31
0r	2d	0r	4e]	2f
.	.	.	4d	.
.	2B-	.	1d	4e
.	.	.	.	4d
.	1A	.	.	1e
.	.	.	2c#	.
=32	=32	=32	=32	=32
2r	2D	1A	1d	1d
1A	1F	.	.	.
.	.	1c	1r	1r
2G	2E	.	.	.
=33	=33	=33	=33	=33
2F	4D	1.d	1.A	0r
.	4E	.	.	.
4D	4F	.	.	.
4E	4G	.	.	.
4F	2A	.	.	.
4G	.	.	.	.
[2A	2F	2c	2A	.
=34	=34	=34	=34	=34
4A]	2G	2B	2B	1r
4G	.	.	.	.
1G	2E	4A	2c	.
.	.	4G	.	.
.	1D	1A	1d	2r
2F#	.	.	.	[2dd
=35	=35	=35	=35	=35
2G	1d	1G	2B	4dd]
.	.	.	.	4cc
1G	.	.	2B	1b
.	2G	1r	1d	.
2F	2A	.	.	2a
=36	=36	=36	=36	=36
2E	2B	2r	1.e	2g
4C	2c	1c	.	4e
4D	.	.	.	4f
4E	1G	.	.	4g
4F	.	.	.	4a
2G	.	2B	2d	[2b
=37	=37	=37	=37	=37
2A	0r	2c	2c	4b]
.	.	.	.	4a
2F	.	2d	4B	1a
.	.	.	4A	.
1E	.	2.e	1B	.
.	.	.	.	2g#
.	.	4d	.	.
=38	=38	=38	=38	=38
1AA	1E	2c	2A	1a
.	.	2A	1e	.
2GG	1G	2r	.	1r
2BB-	.	2D	2d	.
=39	=39	=39	=39	=39
2AA	1.A	2E	2c	1.cc
4FF	.	1F	4A	.
4GG	.	.	4B	.
4AA	.	.	4c	.
4BB	.	.	4d	.
2C	2G	2E	[2e	2cc
=40	=40	=40	=40	=40
1D	2F	0A	4e]	2a
.	.	.	4d	.
.	4E	.	1d	2a
.	4D	.	.	.
1AA	1E	.	.	1a
.	.	.	2c#	.
=41	=41	=41	=41	=41
[0D	[0D	[0A	[0d	[0f#
=42	=42	=42	=42	=42
0D]	0D]	0A]	0d]	0f#]
==	==	==	==	==
*-	*-	*-	*-	*-
!!!CDT: 1525/^1526/-1594/2/2
!!!OCY: Italia
!!!AGN: Mass (Paraphrase)
!!!AST: renaissance, vocal
!!!ASW: Gregorian Mass
!!!PWK: Masses, Book Mantuan II
!!!RNB: Cadence finals: A,E
!!!YOR: Le Opere Complete, v. 19, p. 43
!!!YOO: Rome, Italy: Fratelli Scalera
!!!END: 1992//
!!!EED: John Miller
!!!YEC: Copyright 2000, John Miller
!!!YEN: United States of America
!!!YEM: Rights to all derivative electronic formats reserved.
!!!YEM: Refer to licensing agreement for further details.
!!!YEM: This file must be accompanied by the licensing agreement.
!!!YEM: A copy of the licensing agreement may be found at http://www.music-cog.ohio-state.edu/HumdrumDatabases/Palestrina/license.txt
!!!EMD: converted to Humdrum by Bret Aarden
